shader_type spatial;

//This shader takes in a mask and colors white pixels based on the temperature
//For now temperature can be a value, possibly alongside the thermal energy being emitted by the radiator
//Perhaps temperature could be stored in some kind of map (data texture) which the cpu is doing thermal physics things with

void fragment() {
	// Place fragment code here.
}
