shader_type spatial;

//This shader takes in a mask and an image texture, then adjusts colors based on the mask and a temperature
//Perhaps a normal map could be used for the intensity of the radiated energy.
//For now temperature can be a value, possibly alongside the thermal energy being emitted by the radiator
//Perhaps temperature could be stored in some kind of map (data texture) which the cpu is doing thermal physics things with

void fragment() {
	// Place fragment code here.
}
